X:1
T: Maid on the Green
C: J-50
M: 6/8
Z:
R: jig
K: G
d| "G"gfg e2d| "Em"Bee "G"dcB| BGG dBG| "D7"FAA A2f|
   "G"gfg e2d| "Em"Bee "G"dBG| Bdd dBG| BAG G2:|
|:\
g| "G"gfg "D7"afd| "Em"gfg "D"a2a| "Em"bgg "D"aff| "G"gfa g2a|
   "Em"bgg "D"aff| "Em"gfg "D7"e2d| "Em"Bee "G"dBG| BGG G2:|
%
